X:1
T:I Came Home to a Coffin
T:I Came Home to a Coffin
T:Azimuth OST - 01
T:MD Steele Arr. Rayerdyne 
C:MD Steele\nArr. Rayerdyne
%%score { 1 | ( 2 3 ) } 4 5
L:1/8
Q:1/4=120
M:4/4
K:Eb
V:1 treble nm="Piano" snm="Pia."
V:2 bass 
V:3 bass 
V:4 bass transpose=-12 nm="Basse électrique" snm="B. él."
V:5 perc nm="Batterie" snm="Bat."
K:none
I:percmap A A 43 normal
I:percmap ^b b 52 x
I:percmap ^e e 46 x
I:percmap b b 55 normal
I:percmap c c 40 normal
V:1
 z8 | z8 | .c'2 .c'2 .c'.c' z2 | z2 .c'.c' z c'>c' z | z8 | z8 | .c'2 .c'2 .c'.c' z2 | %7
 z2 .c'.c' z c'>c' z |:S z8 | z8 | z8 | z8 | z8 | z8 | .c'2 .c'2 .c'.c' z2 | z2 .c'.c' z c'>c' z :| %16
 CE G2 F2 GA | E2 G2 D2 EF | C2 G2 FG A2 | E2 G2 D4 |: c/B/c BG AF G2 |{=B} c/_B/c BG d/B/d c2 | %22
 c/B/c BG AF G2 | B/c/B/cgf/ dB c2!D.S.! :| %24
V:2
 C,G,G,C, A,A,C,G, | G,C,F,G, E,F,E,B,, | C,G,G,C, A,A,C,G, | G,C,F,G, E,F,E,B,, | %4
 C,G,G,C, A,A,C,G, | G,C,F,G, E,F,E,B,, | C,G,G,C, A,A,C,G, | G,C,F,G, E,F,E,B,, |: %8
 C,G,G,C, A,A,C,G, | G,C,F,G, E,F,E,B,, | C,G,G,C, A,A,C,G, | G,C,F,G, E,F,E,B,, | %12
 C,G,G,C, A,A,C,G, | G,C,F,G, E,F,E,B,, | C,G,G,C, A,A,C,G, | G,C,F,G, E,F,E,B,, :| %16
 C,G,G,C, A,A,C,G, | G,C,F,G, E,F,E,B,, | C,G,G,C, A,A,C,G, | G,C,F,G, E,F,E,B,, |: %20
 C,G,G,C, A,A,C,G, | G,C,F,G, E,F,E,B,, | C,G,G,C, A,A,C,G, | G,C,F,G, E,F,E,B,, :| %24
V:3
 x8 | x8 | x8 | x8 | C,,8- | C,,8- | C,,8- | C,,8 |: G,8 | D,8 | E,8 | F,8 | C,8- | C,8 | x8 | %15
 x8 :| x8 | x8 | x8 | x8 |: x8 | x8 | x8 | x8 :| %24
V:4
 z8 | z8 | z8 | z8 | C,8- | C,8- | C,8- | C,8 |: G,,8 | D,8 | E,8 | F,8 | C,8- | C,8 | z8 | z8 :| %16
 C,2 C,2 B,,B,, B,,/C,/G,, | C,2 C,2 B,,B,, B,,/C,/G,, | C,2 C,2 B,,B,, B,,/C,/G,, | %19
 C,2 C,2 B,,B,, B,,/C,/G,, |: C,2 C,2 B,,B,, B,,/C,/G,, | C,2 C,2 B,,B,, B,,/C,/G,, | %22
 C,2 C,2 B,,B,, B,,/C,/G,, | C,2 C,2 B,,B,, B,,/C,/G,, :| %24
V:5
[K:C] z8 | z8 | z8 | z8 | A2 z A ^e z z2 | A2 z A ^e z z2 | A2 z A ^e z ^b z | A2 ^b z A^b A<^b |: %8
 A2 ^b2 AA ^b2 | AA ^b2 b2 ^b2 | A2 ^b2 AA ^b2 | AA ^b2 A>^b c/^b/^b | A2 ^b2 c2 ^b2 | %13
 A2 ^b2 c2 ^b2 | A2 ^b2 c2 ^b2 | AA ^b2 A>^b c/^b/^b :| A2 ^b2 A2 ^b2 | A2 ^b2 A2 ^b2 | %18
 A2 ^b2 A2 ^b2 | A2 ^b2 A2 ^b2 |: A2 ^b2 A2 ^b2 | A2 ^b2 A2 ^b2 | A2 ^b2 A2 ^b2 | A2 ^b2 A2 ^b2 :| %24

